svg/business/candle_line.svg

<?xml version="1.0" encoding="UTF-8"?>
<svg width="24px" height="24px" viewBox="0 0 24 24" version="1.1" xmlns="http://www.w3.org/2000/svg" xmlns:xlink="http://www.w3.org/1999/xlink">
    <title>candle_line</title>
    <g id="页面-1" stroke="none" stroke-width="1" fill="none" fill-rule="evenodd">
        <g id="Business" transform="translate(-768.000000, -192.000000)">
            <g id="candle_line" transform="translate(768.000000, 192.000000)">
                <path d="M24,0 L24,24 L0,24 L0,0 L24,0 Z M12.5934901,23.257841 L12.5819402,23.2595131 L12.5108777,23.2950439 L12.4918791,23.2987469 L12.4918791,23.2987469 L12.4767152,23.2950439 L12.4056548,23.2595131 C12.3958229,23.2563662 12.3870493,23.2590235 12.3821421,23.2649074 L12.3780323,23.275831 L12.360941,23.7031097 L12.3658947,23.7234994 L12.3769048,23.7357139 L12.4804777,23.8096931 L12.4953491,23.8136134 L12.4953491,23.8136134 L12.5071152,23.8096931 L12.6106902,23.7357139 L12.6232938,23.7196733 L12.6232938,23.7196733 L12.6266527,23.7031097 L12.609561,23.275831 C12.6075724,23.2657013 12.6010112,23.2592993 12.5934901,23.257841 L12.5934901,23.257841 Z M12.8583906,23.1452862 L12.8445485,23.1473072 L12.6598443,23.2396597 L12.6498822,23.2499052 L12.6498822,23.2499052 L12.6471943,23.2611114 L12.6650943,23.6906389 L12.6699349,23.7034178 L12.6699349,23.7034178 L12.678386,23.7104931 L12.8793402,23.8032389 C12.8914285,23.8068999 12.9022333,23.8029875 12.9078286,23.7952264 L12.9118235,23.7811639 L12.8776777,23.1665331 C12.8752882,23.1545897 12.8674102,23.1470016 12.8583906,23.1452862 L12.8583906,23.1452862 Z M12.1430473,23.1473072 C12.1332178,23.1423925 12.1221763,23.1452606 12.1156365,23.1525954 L12.1099173,23.1665331 L12.0757714,23.7811639 C12.0751323,23.7926639 12.0828099,23.8018602 12.0926481,23.8045676 L12.108256,23.8032389 L12.3092106,23.7104931 L12.3186497,23.7024347 L12.3186497,23.7024347 L12.3225043,23.6906389 L12.340401,23.2611114 L12.337245,23.2485176 L12.337245,23.2485176 L12.3277531,23.2396597 L12.1430473,23.1473072 Z" id="MingCute" fill-rule="nonzero"></path>
                <path d="M12.0579,2.08071 C11.774,1.95916 11.4499,1.97561 11.1797,2.12527 C10.9096,2.27494 10.7237,2.54103 10.6762,2.8462 C10.6285,3.15306 10.5523,3.34182 10.4597,3.49349 C10.3595,3.65756 10.2107,3.82723 9.94645,4.0722 C9.42523,4.55538 9.10938,5.13163 9.02355,5.754 C8.93897,6.36723 9.08931,6.93974 9.34964,7.40886 C9.84173,8.29556 10.8414,9.00000043 11.9028,9.00000043 C13.2853,9.00000043 15,8.03365 15,6.19445 C15,5.25053 14.5784,4.36498 14.054,3.68222 C13.526,2.99456 12.8114,2.4033 12.0579,2.08071 Z M11.3061,5.53892 C11.616,5.25168 11.9181,4.93894 12.1589,4.5484 C12.2671,4.65663 12.3711,4.77448 12.4678,4.90036 C12.8255,5.3661 13,5.83302 13,6.19445 C13,6.3907 12.914,6.57016 12.7195,6.72597 C12.5127,6.89163 12.2117,7 11.9028,7 C11.6877,7 11.3,6.80167 11.0984,6.43837 C11.0119,6.28249 10.9888,6.14319 11.0048,6.02725 C11.0195,5.92045 11.0782,5.75018 11.3061,5.53892 Z M9,10 C7.89543,10 7,10.8954 7,12 L7,20 C7,21.1046 7.89543,22 9,22 L15,22 C16.1046,22 17,21.1046 17,20 L17,12 C17,10.8954 16.1046,10 15,10 L9,10 Z M9,12 L15,12 L15,20 L9,20 L9,12 Z" id="形状" fill="#09244B"></path>
            </g>
        </g>
    </g>
</svg>

<svg xmlns="http://www.w3.org/2000/svg" width="24" height="24"><g fill="none" fill-rule="evenodd"><path d="M24 0v24H0V0zM12.593 23.258l-.011.002-.071.035-.02.004-.014-.004-.071-.035c-.01-.004-.019-.001-.024.005l-.004.01-.017.428.005.02.01.013.104.074.015.004.012-.004.104-.074.012-.016.004-.017-.017-.427c-.002-.01-.009-.017-.017-.018m.265-.113-.013.002-.185.093-.01.01-.003.011.018.43.005.012.008.007.201.093c.012.004.023 0 .029-.008l.004-.014-.034-.614c-.003-.012-.01-.02-.02-.022m-.715.002a.023.023 0 0 0-.027.006l-.006.014-.034.614c0 .012.007.02.017.024l.015-.002.201-.093.01-.008.004-.011.017-.43-.003-.012-.01-.01z"/><path fill="#09244B" d="M12.058 2.08a1 1 0 0 0-1.382.766c-.047.307-.124.496-.216.647-.1.165-.25.334-.514.58-.52.482-.837 1.059-.922 1.681a2.655 2.655 0 0 0 .326 1.655C9.842 8.296 10.84 9 11.903 9 13.285 9 15 8.034 15 6.194c0-.943-.422-1.829-.946-2.512-.528-.687-1.243-1.279-1.996-1.601m-.752 3.459c.31-.287.612-.6.853-.99.108.108.212.225.309.351.357.466.532.933.532 1.294 0 .197-.086.376-.28.532a1.339 1.339 0 0 1-.817.274c-.215 0-.603-.198-.805-.562a.66.66 0 0 1-.093-.41c.014-.108.073-.278.301-.49M9 10a2 2 0 0 0-2 2v8a2 2 0 0 0 2 2h6a2 2 0 0 0 2-2v-8a2 2 0 0 0-2-2zm0 2h6v8H9z"/></g></svg>
